X: 31573
T: Palatine's Daughter, The
R: polka
M: 2/4
K: Dmajor
a/g/|fd fa|ge f>e|d>e fe|dc A2|
AA A/B/A/F/|GG A/B/c/A/|dd c/d/e/c/|d2 d:|
d/c/|de fg|af gf/g/|a>b ga|fd ef/g/|
a>f g>e|fd e>c|d>e fe|dc Af/g/|
af ga|fd e>c|d>e fe|dc A2|
AA A/B/A/F/|GG A/B/c/A/|dd c/d/e/c/|d2 d||

